X: 21074
T: Just As The Tide Was Flowing
R: polka
M: 2/4
K: Gmajor
|:D/E/|GG ED|GG AG/A/|BB B/A/G/A/|B/A/G/F/ ED|
GG ED|GG AG/A/|Bd c/B/A/G/|EF G:|
|:d/c/|Bd dc/B/|ce e2|dB AG/A/|B/A/G/F/ ED|
GG ED|GG AG/A/|Bd c/B/A/G/|EF G:|

